assets/bike.svg

<svg width="214" height="215" viewBox="0 0 214 215" fill="none" xmlns="http://www.w3.org/2000/svg">
<rect y="0.723633" width="214" height="214" rx="16" fill="#F1DFDF"/>
<g clip-path="url(#clip0_607_239)">
<path d="M85.0002 119.724C88.9142 119.724 92.2662 121.994 93.9102 125.268L100.864 121.79C97.9762 115.84 91.8922 111.724 84.8322 111.724C82.3154 111.724 79.8275 112.261 77.5342 113.298L80.8702 120.638C82.1653 120.04 83.5739 119.729 85.0002 119.724ZM129 119.724C131.934 119.724 134.544 121.01 136.376 123.02L142.17 117.75C140.502 115.856 138.45 114.339 136.15 113.299C133.851 112.26 131.356 111.723 128.832 111.724C121.68 111.724 115.528 115.946 112.686 122.024L119.982 125.468C121.586 122.084 125.006 119.724 129 119.724Z" fill="#EA596E"/>
<path d="M85 115.724C83.1615 115.724 81.341 116.086 79.6424 116.789C77.9439 117.493 76.4005 118.524 75.1005 119.824C73.8005 121.124 72.7693 122.668 72.0657 124.366C71.3621 126.065 71 127.885 71 129.724C71 131.562 71.3621 133.383 72.0657 135.081C72.7693 136.78 73.8005 138.323 75.1005 139.623C76.4005 140.923 77.9439 141.954 79.6424 142.658C81.341 143.362 83.1615 143.724 85 143.724C88.713 143.724 92.274 142.249 94.8995 139.623C97.525 136.998 99 133.437 99 129.724C99 126.011 97.525 122.45 94.8995 119.824C92.274 117.199 88.713 115.724 85 115.724ZM85 139.724C82.3478 139.724 79.8043 138.67 77.9289 136.795C76.0536 134.919 75 132.376 75 129.724C75 127.071 76.0536 124.528 77.9289 122.653C79.8043 120.777 82.3478 119.724 85 119.724C87.6522 119.724 90.1957 120.777 92.0711 122.653C93.9464 124.528 95 127.071 95 129.724C95 132.376 93.9464 134.919 92.0711 136.795C90.1957 138.67 87.6522 139.724 85 139.724ZM129 115.724C125.287 115.724 121.726 117.199 119.1 119.825C116.475 122.451 115 126.012 115 129.726C115 133.439 116.476 137 119.102 139.626C121.727 142.251 125.289 143.726 129.002 143.726C130.841 143.726 132.661 143.363 134.36 142.659C136.059 141.956 137.602 140.924 138.902 139.624C140.202 138.324 141.233 136.78 141.937 135.082C142.64 133.383 143.002 131.562 143.002 129.724C143.002 127.885 142.64 126.064 141.936 124.366C141.232 122.667 140.201 121.124 138.9 119.824C137.6 118.524 136.057 117.493 134.358 116.789C132.659 116.086 130.839 115.724 129 115.724ZM129 139.724C126.348 139.724 123.804 138.67 121.929 136.795C120.054 134.919 119 132.376 119 129.724C119 127.071 120.054 124.528 121.929 122.653C123.804 120.777 126.348 119.724 129 119.724C131.652 119.724 134.196 120.777 136.071 122.653C137.946 124.528 139 127.071 139 129.724C139 132.376 137.946 134.919 136.071 136.795C134.196 138.67 131.652 139.724 129 139.724Z" fill="#292F33"/>
<path d="M130.968 129.568C130.955 129.433 130.928 129.301 130.888 129.172C130.853 129.043 130.805 128.919 130.746 128.8C130.72 128.752 130.716 128.696 130.688 128.65L116.688 106.65C116.547 106.428 116.364 106.236 116.149 106.085C115.933 105.934 115.691 105.827 115.434 105.77C115.178 105.713 114.913 105.707 114.654 105.753C114.395 105.798 114.148 105.894 113.926 106.036C113.647 106.218 113.418 106.468 113.263 106.763C113.107 107.058 113.029 107.388 113.036 107.722H95C94.4696 107.722 93.9609 107.932 93.5858 108.307C93.2107 108.682 93 109.191 93 109.722C93 110.252 93.2107 110.761 93.5858 111.136C93.9609 111.511 94.4696 111.722 95 111.722H115C115.054 111.722 115.1 111.694 115.154 111.69L125.356 127.724H107C106.47 127.724 105.961 127.934 105.586 128.309C105.211 128.684 105 129.193 105 129.724C105 130.254 105.211 130.763 105.586 131.138C105.961 131.513 106.47 131.724 107 131.724H129.002C129.309 131.717 129.61 131.64 129.882 131.5C129.944 131.466 130.014 131.452 130.076 131.412C130.136 131.372 130.172 131.31 130.226 131.268C130.433 131.106 130.604 130.904 130.728 130.674C130.788 130.562 130.838 130.454 130.878 130.33C130.919 130.199 130.945 130.064 130.958 129.928C130.966 129.856 131 129.796 131 129.724C131 129.67 130.972 129.622 130.968 129.568Z" fill="#DD2E44"/>
<path d="M114.162 103.724L108.364 119.958L96.5058 106.408C96.3339 106.207 96.1237 106.042 95.8876 105.923C95.6515 105.803 95.3941 105.732 95.1303 105.713C94.8665 105.694 94.6015 105.728 94.3507 105.812C94.0999 105.896 93.8683 106.029 93.6692 106.203C93.4702 106.377 93.3077 106.589 93.1911 106.826C93.0745 107.064 93.0062 107.322 92.99 107.586C92.9739 107.85 93.0103 108.115 93.0971 108.365C93.184 108.614 93.3195 108.845 93.4958 109.042L106.824 124.272L105.116 129.052C104.938 129.551 104.965 130.101 105.192 130.581C105.42 131.06 105.828 131.429 106.328 131.608C106.828 131.786 107.378 131.758 107.857 131.531C108.336 131.304 108.706 130.895 108.884 130.396L118.41 103.724H114.162Z" fill="#DD2E44"/>
<path d="M84.9999 131.724C84.6593 131.723 84.3244 131.636 84.0271 131.469C83.7298 131.303 83.4798 131.064 83.3009 130.774C83.1221 130.484 83.0202 130.153 83.0049 129.813C82.9897 129.473 83.0616 129.134 83.2139 128.83L89.3379 116.618C89.3719 116.562 92.9999 111.026 92.9999 105.724C92.9999 99.2397 88.4139 97.6377 88.3679 97.6217C88.1155 97.5412 87.8817 97.4114 87.6799 97.2398C87.4782 97.0681 87.3125 96.8582 87.1926 96.622C87.0726 96.3858 87.0008 96.1282 86.9812 95.8641C86.9616 95.5999 86.9947 95.3345 87.0786 95.0833C87.1624 94.832 87.2953 94.5999 87.4696 94.4004C87.6439 94.201 87.856 94.0381 88.0937 93.9213C88.3315 93.8045 88.59 93.7361 88.8544 93.72C89.1188 93.7039 89.3837 93.7405 89.6339 93.8277C89.9339 93.9277 96.9999 96.3897 96.9999 105.724C96.9999 111.86 93.3279 117.808 92.7379 118.718L86.7899 130.616C86.6246 130.949 86.3693 131.229 86.053 131.425C85.7367 131.621 85.3719 131.724 84.9999 131.724Z" fill="#DD2E44"/>
<path d="M100.224 99.0496C100.113 99.0501 100.003 99.0408 99.8939 99.0216L87.8939 97.0216C87.3706 96.9343 86.9035 96.6428 86.5951 96.2111C86.2868 95.7794 86.1627 95.2429 86.2499 94.7196C86.3372 94.1963 86.6287 93.7291 87.0604 93.4208C87.4921 93.1125 88.0286 92.9883 88.5519 93.0756L100.552 95.0756C101.048 95.1564 101.496 95.4214 101.806 95.8178C102.116 96.2142 102.265 96.7127 102.224 97.2141C102.182 97.7155 101.954 98.1829 101.583 98.5231C101.212 98.8633 100.727 99.0513 100.224 99.0496ZM123.766 105.724C123.706 105.724 123.647 105.72 123.588 105.712L112.244 104.296C111.875 104.265 111.533 104.091 111.29 103.811C111.048 103.531 110.925 103.167 110.948 102.797C110.971 102.428 111.137 102.082 111.412 101.834C111.687 101.585 112.048 101.455 112.418 101.47C112.5 101.47 120.552 101.434 124.396 98.8716C124.642 98.7085 124.933 98.6259 125.228 98.6353C125.523 98.6446 125.808 98.7453 126.044 98.9236C126.278 99.1039 126.45 99.3524 126.536 99.6348C126.622 99.9171 126.619 100.219 126.526 100.5L125.108 104.754C125.015 105.036 124.835 105.282 124.594 105.456C124.353 105.631 124.063 105.724 123.766 105.724Z" fill="#292F33"/>
<path d="M111 129.724C111 130.784 110.579 131.802 109.828 132.552C109.078 133.302 108.061 133.724 107 133.724C105.939 133.724 104.922 133.302 104.172 132.552C103.421 131.802 103 130.784 103 129.724C103 128.663 103.421 127.645 104.172 126.895C104.922 126.145 105.939 125.724 107 125.724C108.061 125.724 109.078 126.145 109.828 126.895C110.579 127.645 111 128.663 111 129.724Z" fill="#66757F"/>
</g>
<defs>
<clipPath id="clip0_607_239">
<rect width="72" height="72" fill="white" transform="translate(71 71.7236)"/>
</clipPath>
</defs>
</svg>

<svg xmlns="http://www.w3.org/2000/svg" width="214" height="215" fill="none"><rect width="214" height="214" y=".724" fill="#F1DFDF" rx="16"/><g clip-path="url(#a)"><path fill="#EA596E" d="M85 119.724c3.914 0 7.266 2.27 8.91 5.544l6.954-3.478c-2.888-5.95-8.972-10.066-16.032-10.066-2.517 0-5.004.537-7.298 1.574l3.336 7.34a9.934 9.934 0 0 1 4.13-.914Zm44 0c2.934 0 5.544 1.286 7.376 3.296l5.794-5.27a17.753 17.753 0 0 0-13.338-6.026c-7.152 0-13.304 4.222-16.146 10.3l7.296 3.444c1.604-3.384 5.024-5.744 9.018-5.744Z"/><path fill="#292F33" d="M85 115.724a14.01 14.01 0 0 0-9.9 4.1 14.007 14.007 0 0 0-4.1 9.9 13.996 13.996 0 0 0 8.642 12.934 13.993 13.993 0 0 0 15.258-3.035 13.998 13.998 0 0 0-9.9-23.899Zm0 24a10.002 10.002 0 0 1-7.071-17.071 9.997 9.997 0 0 1 14.142 0 9.998 9.998 0 0 1 0 14.142A10.002 10.002 0 0 1 85 139.724Zm44-24a14 14 0 1 0 0 28.001 14 14 0 0 0 0-28.001Zm0 24a10.001 10.001 0 1 1 .001-20.002 10.001 10.001 0 0 1-.001 20.002Z"/><path fill="#DD2E44" d="M130.968 129.568a1.973 1.973 0 0 0-.08-.396 2.038 2.038 0 0 0-.142-.372c-.026-.048-.03-.104-.058-.15l-14-22a2.001 2.001 0 0 0-2.034-.897 1.978 1.978 0 0 0-.728.283 1.955 1.955 0 0 0-.89 1.686H95a2 2 0 1 0 0 4h20c.054 0 .1-.028.154-.032l10.202 16.034H107a2 2 0 1 0 0 4h22.002c.307-.007.608-.084.88-.224.062-.034.132-.048.194-.088.06-.04.096-.102.15-.144a1.9 1.9 0 0 0 .502-.594c.06-.112.11-.22.15-.344.041-.131.067-.266.08-.402.008-.072.042-.132.042-.204 0-.054-.028-.102-.032-.156Z"/><path fill="#DD2E44" d="m114.162 103.724-5.798 16.234-11.858-13.55a1.996 1.996 0 0 0-2.155-.596 2.002 2.002 0 0 0-1.254 2.553c.087.249.223.48.399.677l13.328 15.23-1.708 4.78a2.003 2.003 0 0 0 1.212 2.556 2.002 2.002 0 0 0 2.556-1.212l9.526-26.672h-4.248Z"/><path fill="#DD2E44" d="M85 131.724a1.997 1.997 0 0 1-1.7-.95 2.003 2.003 0 0 1-.086-1.944l6.124-12.212c.034-.056 3.662-5.592 3.662-10.894 0-6.484-4.586-8.086-4.632-8.102a2 2 0 1 1 1.266-3.794c.3.1 7.366 2.562 7.366 11.896 0 6.136-3.672 12.084-4.262 12.994l-5.948 11.898a1.996 1.996 0 0 1-1.79 1.108Z"/><path fill="#292F33" d="M100.224 99.05c-.111 0-.221-.01-.33-.028l-12-2a2 2 0 0 1 .658-3.946l12 2a2 2 0 0 1-.328 3.974Zm23.542 6.674a1.32 1.32 0 0 1-.178-.012l-11.344-1.416a1.416 1.416 0 0 1 .174-2.826c.082 0 8.134-.036 11.978-2.598a1.424 1.424 0 0 1 1.648.052 1.42 1.42 0 0 1 .482 1.576l-1.418 4.254a1.412 1.412 0 0 1-1.342.97Z"/><path fill="#66757F" d="M111 129.724a4 4 0 1 1-8.001 0 4 4 0 0 1 8.001 0Z"/></g><defs><clipPath id="a"><path fill="#fff" d="M71 71.724h72v72H71z"/></clipPath></defs></svg>
